X: 1
T: Mrs. MacPherson of Inveran
T: 8 x 32R 3C (John Drewry, Bon Accord Book)
P: Mrs. MacPherson of Inveran
C: Scots Guards, arr. T. Traub 8-25-2004
L: 1/8
M: 4/4
R: Reel
K: D
g |"D"f2 af dfAd|"D"f2 af "A"feef|"A"e2 ge ceAc|"A"e2 fg "D"fddg|"D"f2 af dfAd|"D"f2 af "A"feef|"A"e2 ge ceAc|"A"e2 fg fddA||
"D"d2 Ad dfAd|"D"d2 Ad "A"dccd|"A"c2 Ac ceAc|"A"c2 Ac "D"eddA|"D"d2 Ad dfAd|"D"d2 Ad "A"dccd|"A"c2 AB cdef|gfea "D"fddg||
"D"f2 gf affg|affg "A"feef|e2 fe geef|geef "D"eddg|"D"f2 gf affg |affg "A"feef|"A"e2 fe geef |geef "D"eddA||
"D"d2 Ad faef|dfed "A"dccd|c2 Ac egdf|ceBc "D"eddA|"D"d2 Ad faef|dfed "A"dccd|c2 Bc Aceg|face "D"eddg||
"D"f2 ed affg |a2 gf "A"feef|e2 dc geef|g2 fe "D"eddg|"D"f2 ed affg|a2 gf "A"feef|e2 dc geef|g2 fe "D"eddA||
"D"d2 Ad f2 df|gfed "A"dccd|c2 Ac e2 ce|gedc "D"eddA|"D"d2 Ad f2 df|gfed "A"dccd|cAdB ecfd|gedc "D"ed d|]
